; G-Code generated by Simplify3D(R) Version 4.0.0
; May 10, 2022 at 2:40:40 PM
; Settings Summary
;   processName,Process1
;   applyToModels,Box_print_back
;   profileName,Anycubic i3 Mega(2) (modified)
;   profileVersion,2022-02-22 13:32:18
;   baseProfile,
;   printMaterial,PLA
;   printQuality,Medium
;   printExtruders,
;   extruderName,Primary Extruder
;   extruderToolheadNumber,0
;   extruderDiameter,0.4
;   extruderAutoWidth,1
;   extruderWidth,0.48
;   extrusionMultiplier,0.94
;   extruderUseRetract,1
;   extruderRetractionDistance,6
;   extruderExtraRestartDistance,0
;   extruderRetractionZLift,0.1
;   extruderRetractionSpeed,3600
;   extruderUseCoasting,0
;   extruderCoastingDistance,0.2
;   extruderUseWipe,0
;   extruderWipeDistance,5
;   primaryExtruder,0
;   layerHeight,0.2
;   topSolidLayers,4
;   bottomSolidLayers,4
;   perimeterOutlines,2
;   printPerimetersInsideOut,1
;   startPointOption,2
;   startPointOriginX,0
;   startPointOriginY,0
;   sequentialIslands,0
;   spiralVaseMode,0
;   firstLayerHeightPercentage,95
;   firstLayerWidthPercentage,110
;   firstLayerUnderspeed,0.5
;   useRaft,0
;   raftExtruder,0
;   raftTopLayers,3
;   raftBaseLayers,2
;   raftOffset,3
;   raftSeparationDistance,0.14
;   raftTopInfill,100
;   aboveRaftSpeedMultiplier,0.3
;   useSkirt,1
;   skirtExtruder,0
;   skirtLayers,2
;   skirtOutlines,10
;   skirtOffset,0
;   usePrimePillar,0
;   primePillarExtruder,999
;   primePillarWidth,12
;   primePillarLocation,7
;   primePillarSpeedMultiplier,1
;   useOozeShield,0
;   oozeShieldExtruder,999
;   oozeShieldOffset,2
;   oozeShieldOutlines,1
;   oozeShieldSidewallShape,1
;   oozeShieldSidewallAngle,30
;   oozeShieldSpeedMultiplier,1
;   infillExtruder,0
;   internalInfillPattern,Grid
;   externalInfillPattern,Rectilinear
;   infillPercentage,10
;   outlineOverlapPercentage,15
;   infillExtrusionWidthPercentage,100
;   minInfillLength,5
;   infillLayerInterval,1
;   internalInfillAngles,45,-45
;   overlapInternalInfillAngles,1
;   externalInfillAngles,45,-45
;   generateSupport,1
;   supportExtruder,0
;   supportInfillPercentage,30
;   supportExtraInflation,0
;   supportBaseLayers,0
;   denseSupportExtruder,0
;   denseSupportLayers,0
;   denseSupportInfillPercentage,70
;   supportLayerInterval,1
;   supportHorizontalPartOffset,0.3
;   supportUpperSeparationLayers,1
;   supportLowerSeparationLayers,1
;   supportType,0
;   supportGridSpacing,2
;   maxOverhangAngle,45
;   supportAngles,0
;   temperatureName,Primary Extruder,Heated Bed
;   temperatureNumber,0,0
;   temperatureSetpointCount,1,1
;   temperatureSetpointLayers,1,1
;   temperatureSetpointTemperatures,210,50
;   temperatureStabilizeAtStartup,1,1
;   temperatureHeatedBed,0,1
;   temperatureRelayBetweenLayers,0,0
;   temperatureRelayBetweenLoops,0,0
;   fanLayers,1,2,6
;   fanSpeeds,0,80,100
;   blipFanToFullPower,0
;   adjustSpeedForCooling,1
;   minSpeedLayerTime,20
;   minCoolingSpeedSlowdown,20
;   increaseFanForCooling,0
;   minFanLayerTime,45
;   maxCoolingFanSpeed,100
;   increaseFanForBridging,0
;   bridgingFanSpeed,100
;   use5D,1
;   relativeEdistances,0
;   allowEaxisZeroing,1
;   independentExtruderAxes,0
;   includeM10123,0
;   stickySupport,1
;   applyToolheadOffsets,0
;   gcodeXoffset,0
;   gcodeYoffset,0
;   gcodeZoffset,0
;   overrideMachineDefinition,1
;   machineTypeOverride,0
;   strokeXoverride,210
;   strokeYoverride,210
;   strokeZoverride,205
;   originOffsetXoverride,0
;   originOffsetYoverride,0
;   originOffsetZoverride,0
;   homeXdirOverride,-1
;   homeYdirOverride,1
;   homeZdirOverride,-1
;   flipXoverride,1
;   flipYoverride,-1
;   flipZoverride,1
;   toolheadOffsets,0,0|0,0|0,0|0,0|0,0|0,0
;   overrideFirmwareConfiguration,1
;   firmwareTypeOverride,RepRap (Marlin/Repetier/Sprinter)
;   GPXconfigOverride,r2
;   baudRateOverride,250000
;   overridePrinterModels,1
;   printerModelsOverride
;   startingGcode,G28 X0 Y0,G28 Z0,G1 Z15 F1000,M107 ; fan off,G5 ; enable resume from power failure,G92 E0 ; zero E axis,G1 E3 F200 ; prime
;   layerChangeGcode,
;   retractionGcode,
;   toolChangeGcode,
;   endingGcode,G1 X0 Y195 F2400 ; position for easy part removal,M106 S0 ; fan off,M104 S0 ; turn off extruder,M140 S0 ; turn off bed,M84 ; disable motors
;   exportFileFormat,gcode
;   celebration,0
;   celebrationSong,Random Song
;   postProcessing,
;   defaultSpeed,2400
;   outlineUnderspeed,0.8
;   solidInfillUnderspeed,0.8
;   supportUnderspeed,0.8
;   rapidXYspeed,4800
;   rapidZspeed,3000
;   minBridgingArea,50
;   bridgingExtraInflation,0
;   bridgingExtrusionMultiplier,1
;   bridgingSpeedMultiplier,1
;   useFixedBridgingAngle,0
;   fixedBridgingAngle,0
;   applyBridgingToPerimeters,0
;   filamentDiameters,1.75|1.75|1.75|1.75|1.75|1.75
;   filamentPricesPerKg,46|46|46|46|46|46
;   filamentDensities,1.25|1.25|1.25|1.25|1.25|1.25
;   useMinPrintHeight,0
;   minPrintHeight,0
;   useMaxPrintHeight,0
;   maxPrintHeight,0
;   useDiaphragm,0
;   diaphragmLayerInterval,20
;   robustSlicing,1
;   mergeAllIntoSolid,0
;   onlyRetractWhenCrossingOutline,1
;   retractBetweenLayers,1
;   useRetractionMinTravel,0
;   retractionMinTravel,3
;   retractWhileWiping,0
;   onlyWipeOutlines,1
;   avoidCrossingOutline,1
;   maxMovementDetourFactor,3
;   toolChangeRetractionDistance,12
;   toolChangeExtraRestartDistance,-0.5
;   toolChangeRetractionSpeed,600
;   externalThinWallType,0
;   internalThinWallType,2
;   thinWallAllowedOverlapPercentage,25
;   singleExtrusionMinLength,1
;   singleExtrusionMinPrintingWidthPercentage,50
;   singleExtrusionMaxPrintingWidthPercentage,200
;   singleExtrusionEndpointExtension,0.2
;   horizontalSizeCompensation,0
G90
M82
M106 S0
M140 S50
M190 S50
M104 S210 T0
M109 S210 T0
G28 X0 Y0
G28 Z0
G1 Z15 F1000
M107 ; fan off
G5 ; enable resume from power failure
G92 E0 ; zero E axis
G1 E3 F200 ; prime
G92 E0
G1 E-6.0000 F3600
G1 Z0.290 F3000
; process Process1
; layer 1, Z = 0.190
T0
; tool H0.200 W0.528
; skirt
G1 X53.969 Y51.595 F4800
G1 Z0.190 F3000
G1 E0.0000 F1080
G92 E0
G1 X54.392 Y51.172 E0.0247 F1200
G1 X59.008 Y47.630 E0.2648
G1 X59.526 Y47.331 E0.2895
G1 X64.902 Y45.104 E0.5296
G1 X65.479 Y44.950 E0.5543
G1 X71.100 Y44.210 E0.7882
G1 X71.398 Y44.190 E0.8006
G1 X138.602 Y44.190 E3.5740
G1 X138.900 Y44.210 E3.5864
G1 X144.521 Y44.950 E3.8203
G1 X145.098 Y45.104 E3.8450
G1 X150.474 Y47.331 E4.0851
G1 X150.992 Y47.630 E4.1098
G1 X155.608 Y51.172 E4.3499
G1 X156.031 Y51.595 E4.3746
G1 X159.482 Y56.092 E4.6086
G1 X159.648 Y56.341 E4.6209
G1 X191.344 Y111.240 E7.2371
G1 X191.476 Y111.508 E7.2494
G1 X193.646 Y116.746 E7.4833
G1 X193.800 Y117.323 E7.5080
G1 X194.540 Y122.944 E7.7420
G1 X194.560 Y123.242 E7.7543
G1 X194.560 Y163.139 E9.4008
G1 X191.889 Y165.810 E9.5567
G1 X18.111 Y165.810 E16.7284
G1 X15.440 Y163.139 E16.8843
G1 X15.440 Y123.242 E18.5308
G1 X15.460 Y122.944 E18.5431
G1 X16.200 Y117.323 E18.7771
G1 X16.354 Y116.746 E18.8017
G1 X18.524 Y111.508 E19.0357
G1 X18.656 Y111.240 E19.0480
G1 X50.352 Y56.341 E21.6642
G1 X50.518 Y56.092 E21.6765
G1 X53.969 Y51.595 E21.9105
G1 X54.331 Y51.912 F4800
G92 E0
G1 X54.709 Y51.534 E0.0221 F1200
G1 X59.275 Y48.030 E0.2596
G1 X59.739 Y47.762 E0.2817
G1 X65.056 Y45.560 E0.5192
G1 X65.573 Y45.421 E0.5413
G1 X71.147 Y44.687 E0.7733
G1 X71.413 Y44.670 E0.7843
G1 X138.587 Y44.670 E3.5565
G1 X138.853 Y44.687 E3.5675
G1 X144.427 Y45.421 E3.7996
G1 X144.944 Y45.560 E3.8216
G1 X150.261 Y47.762 E4.0592
G1 X150.725 Y48.030 E4.0812
G1 X155.291 Y51.534 E4.3188
G1 X155.669 Y51.912 E4.3409
G1 X159.092 Y56.372 E4.5729
G1 X159.240 Y56.594 E4.5839
G1 X190.921 Y111.467 E7.1988
G1 X191.039 Y111.706 E7.2098
G1 X193.190 Y116.900 E7.4418
G1 X193.329 Y117.417 E7.4639
G1 X194.063 Y122.991 E7.6959
G1 X194.080 Y123.257 E7.7069
G1 X194.080 Y162.940 E9.3446
G1 X191.690 Y165.330 E9.4841
G1 X18.310 Y165.330 E16.6393
G1 X15.920 Y162.940 E16.7788
G1 X15.920 Y123.257 E18.4165
G1 X15.937 Y122.991 E18.4275
G1 X16.671 Y117.417 E18.6595
G1 X16.810 Y116.900 E18.6816
G1 X18.961 Y111.706 E18.9136
G1 X19.079 Y111.467 E18.9246
G1 X50.760 Y56.594 E21.5395
G1 X50.908 Y56.372 E21.5505
G1 X54.331 Y51.912 E21.7825
G1 X54.692 Y52.229 F4800
G92 E0
G1 X55.026 Y51.895 E0.0195 F1200
G1 X59.543 Y48.430 E0.2544
G1 X59.951 Y48.194 E0.2739
G1 X65.211 Y46.015 E0.5088
G1 X65.667 Y45.893 E0.5283
G1 X71.194 Y45.165 E0.7584
G1 X71.429 Y45.150 E0.7681
G1 X138.571 Y45.150 E3.5390
G1 X138.806 Y45.165 E3.5487
G1 X144.333 Y45.893 E3.7788
G1 X144.789 Y46.015 E3.7983
G1 X150.049 Y48.194 E4.0332
G1 X150.457 Y48.430 E4.0527
G1 X154.974 Y51.895 E4.2876
G1 X155.308 Y52.229 E4.3071
G1 X158.701 Y56.652 E4.5372
G1 X158.832 Y56.848 E4.5469
G1 X190.497 Y111.693 E7.1605
G1 X190.601 Y111.904 E7.1702
G1 X192.735 Y117.055 E7.4003
G1 X192.857 Y117.511 E7.4197
G1 X193.585 Y123.038 E7.6498
G1 X193.600 Y123.273 E7.6595
G1 X193.600 Y162.741 E9.2883
G1 X191.491 Y164.850 E9.4114
G1 X18.509 Y164.850 E16.5503
G1 X16.400 Y162.741 E16.6733
G1 X16.400 Y123.273 E18.3022
G1 X16.415 Y123.038 E18.3119
G1 X17.143 Y117.511 E18.5420
G1 X17.265 Y117.055 E18.5614
G1 X19.399 Y111.904 E18.7915
G1 X19.503 Y111.693 E18.8012
G1 X51.168 Y56.848 E21.4148
G1 X51.299 Y56.652 E21.4245
G1 X54.692 Y52.229 E21.6546
G1 X55.054 Y52.546 F4800
G92 E0
G1 X55.343 Y52.257 E0.0169 F1200
G1 X59.810 Y48.830 E0.2492
G1 X60.164 Y48.625 E0.2661
G1 X65.366 Y46.471 E0.4985
G1 X65.761 Y46.365 E0.5153
G1 X71.241 Y45.643 E0.7435
G1 X71.445 Y45.630 E0.7519
G1 X138.555 Y45.630 E3.5215
G1 X138.759 Y45.643 E3.5299
G1 X144.239 Y46.365 E3.7580
G1 X144.634 Y46.471 E3.7749
G1 X149.836 Y48.625 E4.0072
G1 X150.190 Y48.830 E4.0241
G1 X154.657 Y52.257 E4.2565
G1 X154.946 Y52.546 E4.2734
G1 X158.311 Y56.932 E4.5015
G1 X158.424 Y57.102 E4.5099
G1 X190.074 Y111.919 E7.1222
G1 X190.164 Y112.103 E7.1306
G1 X192.279 Y117.210 E7.3587
G1 X192.385 Y117.605 E7.3756
G1 X193.107 Y123.085 E7.6037
G1 X193.120 Y123.289 E7.6122
G1 X193.120 Y162.542 E9.2321
G1 X191.292 Y164.370 E9.3388
G1 X18.708 Y164.370 E16.4612
G1 X16.880 Y162.542 E16.5679
G1 X16.880 Y123.289 E18.1878
G1 X16.893 Y123.085 E18.1963
G1 X17.615 Y117.605 E18.4244
G1 X17.721 Y117.210 E18.4413
G1 X19.836 Y112.103 E18.6694
G1 X19.926 Y111.919 E18.6778
G1 X51.576 Y57.102 E21.2901
G1 X51.689 Y56.932 E21.2985
G1 X55.054 Y52.546 E21.5266
G1 X55.416 Y52.863 F4800
G92 E0
G1 X55.660 Y52.619 E0.0143 F1200
G1 X60.077 Y49.230 E0.2440
G1 X60.377 Y49.057 E0.2583
G1 X65.520 Y46.926 E0.4881
G1 X65.854 Y46.837 E0.5023
G1 X71.288 Y46.121 E0.7285
G1 X71.461 Y46.110 E0.7357
G1 X138.539 Y46.110 E3.5039
G1 X138.712 Y46.121 E3.5111
G1 X144.146 Y46.837 E3.7373
G1 X144.480 Y46.926 E3.7515
G1 X149.623 Y49.057 E3.9813
G1 X149.923 Y49.230 E3.9956
G1 X154.340 Y52.619 E4.2253
G1 X154.584 Y52.863 E4.2396
G1 X157.921 Y57.211 E4.4658
G1 X158.017 Y57.355 E4.4729
G1 X189.650 Y112.146 E7.0839
G1 X189.726 Y112.301 E7.0910
G1 X191.824 Y117.364 E7.3172
G1 X191.913 Y117.698 E7.3315
G1 X192.629 Y123.132 E7.5576
G1 X192.640 Y123.305 E7.5648
G1 X192.640 Y162.344 E9.1759
G1 X191.094 Y163.890 E9.2661
G1 X18.906 Y163.890 E16.3722
G1 X17.360 Y162.344 E16.4624
G1 X17.360 Y123.305 E18.0735
G1 X17.371 Y123.132 E18.0807
G1 X18.087 Y117.698 E18.3068
G1 X18.176 Y117.364 E18.3211
G1 X20.274 Y112.301 E18.5473
G1 X20.350 Y112.146 E18.5544
G1 X51.983 Y57.355 E21.1654
G1 X52.079 Y57.211 E21.1725
G1 X55.416 Y52.863 E21.3987
G1 X55.777 Y53.181 F4800
G92 E0
G1 X55.978 Y52.980 E0.0117 F1200
G1 X60.344 Y49.630 E0.2388
G1 X60.590 Y49.488 E0.2505
G1 X65.675 Y47.382 E0.4777
G1 X65.948 Y47.308 E0.4894
G1 X71.335 Y46.599 E0.7136
G1 X71.476 Y46.590 E0.7194
G1 X138.524 Y46.590 E3.4864
G1 X138.665 Y46.599 E3.4923
G1 X144.052 Y47.308 E3.7165
G1 X144.325 Y47.382 E3.7282
G1 X149.410 Y49.488 E3.9553
G1 X149.656 Y49.630 E3.9670
G1 X154.022 Y52.980 E4.1942
G1 X154.223 Y53.181 E4.2058
G1 X157.530 Y57.491 E4.4301
G1 X157.609 Y57.609 E4.4359
G1 X189.226 Y112.372 E7.0456
G1 X189.289 Y112.499 E7.0514
G1 X191.368 Y117.519 E7.2757
G1 X191.442 Y117.792 E7.2873
G1 X192.151 Y123.179 E7.5116
G1 X192.160 Y123.320 E7.5174
G1 X192.160 Y162.145 E9.1197
G1 X190.895 Y163.410 E9.1935
G1 X19.105 Y163.410 E16.2831
G1 X17.840 Y162.145 E16.3570
G1 X17.840 Y123.320 E17.9592
G1 X17.849 Y123.179 E17.9650
G1 X18.558 Y117.792 E18.1893
G1 X18.632 Y117.519 E18.2010
G1 X20.711 Y112.499 E18.4252
G1 X20.774 Y112.372 E18.4310
G1 X52.391 Y57.609 E21.0407
G1 X52.470 Y57.491 E21.0465
G1 X55.777 Y53.181 E21.2708
G1 X56.139 Y53.498 F4800
G92 E0
G1 X56.295 Y53.342 E0.0091 F1200
G1 X60.612 Y50.030 E0.2336
G1 X60.802 Y49.919 E0.2427
G1 X65.829 Y47.837 E0.4673
G1 X66.042 Y47.780 E0.4764
G1 X71.382 Y47.077 E0.6987
G1 X71.492 Y47.070 E0.7032
G1 X138.508 Y47.070 E3.4689
G1 X138.618 Y47.077 E3.4734
G1 X143.958 Y47.780 E3.6957
G1 X144.171 Y47.837 E3.7048
G1 X149.198 Y49.919 E3.9294
G1 X149.388 Y50.030 E3.9385
G1 X153.705 Y53.342 E4.1630
G1 X153.861 Y53.498 E4.1721
G1 X157.140 Y57.771 E4.3944
G1 X157.201 Y57.862 E4.3989
G1 X188.803 Y112.599 E7.0073
G1 X188.852 Y112.697 E7.0118
G1 X190.913 Y117.673 E7.2341
G1 X190.970 Y117.886 E7.2432
G1 X191.673 Y123.226 E7.4655
G1 X191.680 Y123.336 E7.4700
G1 X191.680 Y161.946 E9.0634
G1 X190.696 Y162.930 E9.1209
G1 X19.304 Y162.930 E16.1941
G1 X18.320 Y161.946 E16.2515
G1 X18.320 Y123.336 E17.8449
G1 X18.327 Y123.226 E17.8494
G1 X19.030 Y117.886 E18.0717
G1 X19.087 Y117.673 E18.0808
G1 X21.148 Y112.697 E18.3031
G1 X21.197 Y112.599 E18.3076
G1 X52.799 Y57.862 E20.9160
G1 X52.860 Y57.771 E20.9205
G1 X56.139 Y53.498 E21.1428
G1 X56.501 Y53.815 F4800
G92 E0
G1 X56.612 Y53.704 E0.0065 F1200
G1 X60.879 Y50.430 E0.2285
G1 X61.015 Y50.351 E0.2349
G1 X65.984 Y48.293 E0.4569
G1 X66.136 Y48.252 E0.4634
G1 X71.429 Y47.555 E0.6837
G1 X71.508 Y47.550 E0.6870
G1 X138.492 Y47.550 E3.4514
G1 X138.571 Y47.555 E3.4546
G1 X143.864 Y48.252 E3.6749
G1 X144.016 Y48.293 E3.6814
G1 X148.985 Y50.351 E3.9034
G1 X149.121 Y50.430 E3.9099
G1 X153.388 Y53.704 E4.1319
G1 X153.499 Y53.815 E4.1383
G1 X156.749 Y58.051 E4.3587
G1 X156.793 Y58.116 E4.3619
G1 X188.379 Y112.825 E6.9690
G1 X188.414 Y112.896 E6.9722
G1 X190.457 Y117.828 E7.1926
G1 X190.498 Y117.980 E7.1991
G1 X191.195 Y123.273 E7.4194
G1 X191.200 Y123.352 E7.4227
G1 X191.200 Y161.747 E9.0072
G1 X190.497 Y162.450 E9.0482
G1 X19.503 Y162.450 E16.1050
G1 X18.800 Y161.747 E16.1460
G1 X18.800 Y123.352 E17.7306
G1 X18.805 Y123.273 E17.7338
G1 X19.502 Y117.980 E17.9542
G1 X19.543 Y117.828 E17.9606
G1 X21.586 Y112.896 E18.1810
G1 X21.621 Y112.825 E18.1842
G1 X53.207 Y58.116 E20.7913
G1 X53.251 Y58.051 E20.7945
G1 X56.501 Y53.815 E21.0149
G1 X56.862 Y54.132 F4800
G92 E0
G1 X56.929 Y54.065 E0.0039 F1200
G1 X61.146 Y50.830 E0.2233
G1 X61.228 Y50.782 E0.2272
G1 X66.139 Y48.748 E0.4465
G1 X66.230 Y48.724 E0.4504
G1 X71.476 Y48.033 E0.6688
G1 X71.523 Y48.030 E0.6707
G1 X138.477 Y48.030 E3.4338
G1 X138.524 Y48.033 E3.4358
G1 X143.770 Y48.724 E3.6542
G1 X143.861 Y48.748 E3.6581
G1 X148.772 Y50.782 E3.8774
G1 X148.854 Y50.830 E3.8813
G1 X153.071 Y54.065 E4.1007
G1 X153.138 Y54.132 E4.1046
G1 X156.359 Y58.330 E4.3230
G1 X156.385 Y58.370 E4.3249
G1 X187.956 Y113.051 E6.9307
G1 X187.977 Y113.094 E6.9327
G1 X190.002 Y117.983 E7.1510
G1 X190.026 Y118.074 E7.1549
G1 X190.717 Y123.320 E7.3733
G1 X190.720 Y123.367 E7.3753
G1 X190.720 Y161.548 E8.9510
G1 X190.298 Y161.970 E8.9756
G1 X19.702 Y161.970 E16.0160
G1 X19.280 Y161.548 E16.0406
G1 X19.280 Y123.367 E17.6163
G1 X19.283 Y123.320 E17.6182
G1 X19.974 Y118.074 E17.8366
G1 X19.998 Y117.983 E17.8405
G1 X22.023 Y113.094 E18.0589
G1 X22.044 Y113.051 E18.0608
G1 X53.615 Y58.370 E20.6666
