; G-Code generated by Simplify3D(R) Version 4.0.0
; May 10, 2022 at 2:40:12 PM
; Settings Summary
;   processName,Process1
;   applyToModels,Box_print_front
;   profileName,Anycubic i3 Mega(2) (modified)
;   profileVersion,2022-02-22 13:32:18
;   baseProfile,
;   printMaterial,PLA
;   printQuality,Medium
;   printExtruders,
;   extruderName,Primary Extruder
;   extruderToolheadNumber,0
;   extruderDiameter,0.4
;   extruderAutoWidth,1
;   extruderWidth,0.48
;   extrusionMultiplier,0.94
;   extruderUseRetract,1
;   extruderRetractionDistance,6
;   extruderExtraRestartDistance,0
;   extruderRetractionZLift,0.1
;   extruderRetractionSpeed,3600
;   extruderUseCoasting,0
;   extruderCoastingDistance,0.2
;   extruderUseWipe,0
;   extruderWipeDistance,5
;   primaryExtruder,0
;   layerHeight,0.2
;   topSolidLayers,4
;   bottomSolidLayers,4
;   perimeterOutlines,2
;   printPerimetersInsideOut,1
;   startPointOption,2
;   startPointOriginX,0
;   startPointOriginY,0
;   sequentialIslands,0
;   spiralVaseMode,0
;   firstLayerHeightPercentage,95
;   firstLayerWidthPercentage,110
;   firstLayerUnderspeed,0.5
;   useRaft,0
;   raftExtruder,0
;   raftTopLayers,3
;   raftBaseLayers,2
;   raftOffset,3
;   raftSeparationDistance,0.14
;   raftTopInfill,100
;   aboveRaftSpeedMultiplier,0.3
;   useSkirt,1
;   skirtExtruder,0
;   skirtLayers,2
;   skirtOutlines,10
;   skirtOffset,0
;   usePrimePillar,0
;   primePillarExtruder,999
;   primePillarWidth,12
;   primePillarLocation,7
;   primePillarSpeedMultiplier,1
;   useOozeShield,0
;   oozeShieldExtruder,999
;   oozeShieldOffset,2
;   oozeShieldOutlines,1
;   oozeShieldSidewallShape,1
;   oozeShieldSidewallAngle,30
;   oozeShieldSpeedMultiplier,1
;   infillExtruder,0
;   internalInfillPattern,Grid
;   externalInfillPattern,Rectilinear
;   infillPercentage,10
;   outlineOverlapPercentage,15
;   infillExtrusionWidthPercentage,100
;   minInfillLength,5
;   infillLayerInterval,1
;   internalInfillAngles,45,-45
;   overlapInternalInfillAngles,1
;   externalInfillAngles,45,-45
;   generateSupport,1
;   supportExtruder,0
;   supportInfillPercentage,30
;   supportExtraInflation,0
;   supportBaseLayers,0
;   denseSupportExtruder,0
;   denseSupportLayers,0
;   denseSupportInfillPercentage,70
;   supportLayerInterval,1
;   supportHorizontalPartOffset,0.3
;   supportUpperSeparationLayers,1
;   supportLowerSeparationLayers,1
;   supportType,0
;   supportGridSpacing,2
;   maxOverhangAngle,45
;   supportAngles,0
;   temperatureName,Primary Extruder,Heated Bed
;   temperatureNumber,0,0
;   temperatureSetpointCount,1,1
;   temperatureSetpointLayers,1,1
;   temperatureSetpointTemperatures,210,50
;   temperatureStabilizeAtStartup,1,1
;   temperatureHeatedBed,0,1
;   temperatureRelayBetweenLayers,0,0
;   temperatureRelayBetweenLoops,0,0
;   fanLayers,1,2,6
;   fanSpeeds,0,80,100
;   blipFanToFullPower,0
;   adjustSpeedForCooling,1
;   minSpeedLayerTime,20
;   minCoolingSpeedSlowdown,20
;   increaseFanForCooling,0
;   minFanLayerTime,45
;   maxCoolingFanSpeed,100
;   increaseFanForBridging,0
;   bridgingFanSpeed,100
;   use5D,1
;   relativeEdistances,0
;   allowEaxisZeroing,1
;   independentExtruderAxes,0
;   includeM10123,0
;   stickySupport,1
;   applyToolheadOffsets,0
;   gcodeXoffset,0
;   gcodeYoffset,0
;   gcodeZoffset,0
;   overrideMachineDefinition,1
;   machineTypeOverride,0
;   strokeXoverride,210
;   strokeYoverride,210
;   strokeZoverride,205
;   originOffsetXoverride,0
;   originOffsetYoverride,0
;   originOffsetZoverride,0
;   homeXdirOverride,-1
;   homeYdirOverride,1
;   homeZdirOverride,-1
;   flipXoverride,1
;   flipYoverride,-1
;   flipZoverride,1
;   toolheadOffsets,0,0|0,0|0,0|0,0|0,0|0,0
;   overrideFirmwareConfiguration,1
;   firmwareTypeOverride,RepRap (Marlin/Repetier/Sprinter)
;   GPXconfigOverride,r2
;   baudRateOverride,250000
;   overridePrinterModels,1
;   printerModelsOverride
;   startingGcode,G28 X0 Y0,G28 Z0,G1 Z15 F1000,M107 ; fan off,G5 ; enable resume from power failure,G92 E0 ; zero E axis,G1 E3 F200 ; prime
;   layerChangeGcode,
;   retractionGcode,
;   toolChangeGcode,
;   endingGcode,G1 X0 Y195 F2400 ; position for easy part removal,M106 S0 ; fan off,M104 S0 ; turn off extruder,M140 S0 ; turn off bed,M84 ; disable motors
;   exportFileFormat,gcode
;   celebration,0
;   celebrationSong,Random Song
;   postProcessing,
;   defaultSpeed,2400
;   outlineUnderspeed,0.8
;   solidInfillUnderspeed,0.8
;   supportUnderspeed,0.8
;   rapidXYspeed,4800
;   rapidZspeed,3000
;   minBridgingArea,50
;   bridgingExtraInflation,0
;   bridgingExtrusionMultiplier,1
;   bridgingSpeedMultiplier,1
;   useFixedBridgingAngle,0
;   fixedBridgingAngle,0
;   applyBridgingToPerimeters,0
;   filamentDiameters,1.75|1.75|1.75|1.75|1.75|1.75
;   filamentPricesPerKg,46|46|46|46|46|46
;   filamentDensities,1.25|1.25|1.25|1.25|1.25|1.25
;   useMinPrintHeight,0
;   minPrintHeight,0
;   useMaxPrintHeight,0
;   maxPrintHeight,0
;   useDiaphragm,0
;   diaphragmLayerInterval,20
;   robustSlicing,1
;   mergeAllIntoSolid,0
;   onlyRetractWhenCrossingOutline,1
;   retractBetweenLayers,1
;   useRetractionMinTravel,0
;   retractionMinTravel,3
;   retractWhileWiping,0
;   onlyWipeOutlines,1
;   avoidCrossingOutline,1
;   maxMovementDetourFactor,3
;   toolChangeRetractionDistance,12
;   toolChangeExtraRestartDistance,-0.5
;   toolChangeRetractionSpeed,600
;   externalThinWallType,0
;   internalThinWallType,2
;   thinWallAllowedOverlapPercentage,25
;   singleExtrusionMinLength,1
;   singleExtrusionMinPrintingWidthPercentage,50
;   singleExtrusionMaxPrintingWidthPercentage,200
;   singleExtrusionEndpointExtension,0.2
;   horizontalSizeCompensation,0
G90
M82
M106 S0
M140 S50
M190 S50
M104 S210 T0
M109 S210 T0
G28 X0 Y0
G28 Z0
G1 Z15 F1000
M107 ; fan off
G5 ; enable resume from power failure
G92 E0 ; zero E axis
G1 E3 F200 ; prime
G92 E0
G1 E-6.0000 F3600
G1 Z0.290 F3000
; process Process1
; layer 1, Z = 0.190
T0
; tool H0.200 W0.528
; skirt
G1 X18.111 Y44.190 F4800
G1 Z0.190 F3000
G1 E0.0000 F1080
G92 E0
G1 X191.889 Y44.190 E7.1717 F1200
G1 X194.560 Y46.861 E7.3276
G1 X194.560 Y86.758 E8.9741
G1 X194.540 Y87.056 E8.9864
G1 X193.800 Y92.677 E9.2204
G1 X193.646 Y93.254 E9.2450
G1 X191.476 Y98.492 E9.4790
G1 X191.344 Y98.760 E9.4913
G1 X159.648 Y153.659 E12.1075
G1 X159.482 Y153.908 E12.1198
G1 X156.031 Y158.405 E12.3538
G1 X155.608 Y158.828 E12.3784
G1 X150.992 Y162.370 E12.6186
G1 X150.474 Y162.669 E12.6432
G1 X145.098 Y164.896 E12.8834
G1 X144.521 Y165.050 E12.9080
G1 X138.900 Y165.790 E13.1420
G1 X138.602 Y165.810 E13.1543
G1 X71.398 Y165.810 E15.9278
G1 X71.100 Y165.790 E15.9401
G1 X65.479 Y165.050 E16.1741
G1 X64.902 Y164.896 E16.1988
G1 X59.526 Y162.669 E16.4389
G1 X59.008 Y162.370 E16.4636
G1 X54.392 Y158.828 E16.7037
G1 X53.969 Y158.405 E16.7284
G1 X50.518 Y153.908 E16.9623
G1 X50.352 Y153.659 E16.9747
G1 X18.656 Y98.760 E19.5908
G1 X18.524 Y98.492 E19.6031
G1 X16.354 Y93.254 E19.8371
G1 X16.200 Y92.677 E19.8618
G1 X15.460 Y87.056 E20.0957
G1 X15.440 Y86.758 E20.1081
G1 X15.440 Y46.861 E21.7546
G1 X18.111 Y44.190 E21.9105
G1 X18.310 Y44.670 F4800
G92 E0
G1 X191.690 Y44.670 E7.1552 F1200
G1 X194.080 Y47.060 E7.2947
G1 X194.080 Y86.743 E8.9324
G1 X194.063 Y87.009 E8.9434
G1 X193.329 Y92.583 E9.1754
G1 X193.190 Y93.100 E9.1975
G1 X191.039 Y98.294 E9.4295
G1 X190.921 Y98.533 E9.4406
G1 X159.240 Y153.406 E12.0554
G1 X159.092 Y153.628 E12.0664
G1 X155.669 Y158.088 E12.2985
G1 X155.291 Y158.466 E12.3205
G1 X150.725 Y161.970 E12.5581
G1 X150.261 Y162.238 E12.5801
G1 X144.944 Y164.440 E12.8177
G1 X144.427 Y164.579 E12.8398
G1 X138.853 Y165.313 E13.0718
G1 X138.587 Y165.330 E13.0828
G1 X71.413 Y165.330 E15.8550
G1 X71.147 Y165.313 E15.8660
G1 X65.573 Y164.579 E16.0980
G1 X65.056 Y164.440 E16.1201
G1 X59.739 Y162.238 E16.3576
G1 X59.275 Y161.970 E16.3797
G1 X54.709 Y158.466 E16.6172
G1 X54.331 Y158.088 E16.6393
G1 X50.908 Y153.628 E16.8713
G1 X50.760 Y153.406 E16.8824
G1 X19.079 Y98.533 E19.4972
G1 X18.961 Y98.294 E19.5082
G1 X16.810 Y93.100 E19.7403
G1 X16.671 Y92.583 E19.7623
G1 X15.937 Y87.009 E19.9943
G1 X15.920 Y86.743 E20.0054
G1 X15.920 Y47.060 E21.6430
G1 X18.310 Y44.670 E21.7825
G1 X18.509 Y45.150 F4800
G92 E0
G1 X191.491 Y45.150 E7.1388 F1200
G1 X193.600 Y47.259 E7.2619
G1 X193.600 Y86.727 E8.8907
G1 X193.585 Y86.962 E8.9005
G1 X192.857 Y92.489 E9.1305
G1 X192.735 Y92.945 E9.1500
G1 X190.601 Y98.096 E9.3801
G1 X190.497 Y98.307 E9.3898
G1 X158.832 Y153.152 E12.0034
G1 X158.701 Y153.348 E12.0131
G1 X155.308 Y157.771 E12.2432
G1 X154.974 Y158.105 E12.2626
G1 X150.457 Y161.570 E12.4976
G1 X150.049 Y161.806 E12.5171
G1 X144.789 Y163.985 E12.7520
G1 X144.333 Y164.107 E12.7715
G1 X138.806 Y164.835 E13.0015
G1 X138.571 Y164.850 E13.0113
G1 X71.429 Y164.850 E15.7822
G1 X71.194 Y164.835 E15.7919
G1 X65.667 Y164.107 E16.0220
G1 X65.211 Y163.985 E16.0414
G1 X59.951 Y161.806 E16.2764
G1 X59.543 Y161.570 E16.2958
G1 X55.026 Y158.105 E16.5308
G1 X54.692 Y157.771 E16.5503
G1 X51.299 Y153.348 E16.7803
G1 X51.168 Y153.152 E16.7901
G1 X19.503 Y98.307 E19.4036
G1 X19.399 Y98.096 E19.4134
G1 X17.265 Y92.945 E19.6434
G1 X17.143 Y92.489 E19.6629
G1 X16.415 Y86.962 E19.8930
G1 X16.400 Y86.727 E19.9027
G1 X16.400 Y47.259 E21.5315
G1 X18.509 Y45.150 E21.6546
G1 X18.708 Y45.630 F4800
G92 E0
G1 X191.292 Y45.630 E7.1224 F1200
G1 X193.120 Y47.458 E7.2291
G1 X193.120 Y86.711 E8.8491
G1 X193.107 Y86.915 E8.8575
G1 X192.385 Y92.395 E9.0856
G1 X192.279 Y92.790 E9.1025
G1 X190.164 Y97.897 E9.3306
G1 X190.074 Y98.081 E9.3390
G1 X158.424 Y152.898 E11.9513
G1 X158.311 Y153.068 E11.9597
G1 X154.946 Y157.454 E12.1879
G1 X154.657 Y157.743 E12.2047
G1 X150.190 Y161.170 E12.4371
G1 X149.836 Y161.375 E12.4540
G1 X144.634 Y163.529 E12.6863
G1 X144.239 Y163.635 E12.7032
G1 X138.759 Y164.357 E12.9313
G1 X138.555 Y164.370 E12.9397
G1 X71.445 Y164.370 E15.7093
G1 X71.241 Y164.357 E15.7178
G1 X65.761 Y163.635 E15.9459
G1 X65.366 Y163.529 E15.9628
G1 X60.164 Y161.375 E16.1951
G1 X59.810 Y161.170 E16.2120
G1 X55.343 Y157.743 E16.4443
G1 X55.054 Y157.454 E16.4612
G1 X51.689 Y153.068 E16.6893
G1 X51.576 Y152.898 E16.6978
G1 X19.926 Y98.081 E19.3100
G1 X19.836 Y97.897 E19.3185
G1 X17.721 Y92.790 E19.5466
G1 X17.615 Y92.395 E19.5635
G1 X16.893 Y86.915 E19.7916
G1 X16.880 Y86.711 E19.8000
G1 X16.880 Y47.458 E21.4200
G1 X18.708 Y45.630 E21.5266
G1 X18.906 Y46.110 F4800
G92 E0
G1 X191.094 Y46.110 E7.1060 F1200
G1 X192.640 Y47.656 E7.1963
G1 X192.640 Y86.695 E8.8074
G1 X192.629 Y86.868 E8.8145
G1 X191.913 Y92.302 E9.0407
G1 X191.824 Y92.636 E9.0550
G1 X189.726 Y97.699 E9.2811
G1 X189.650 Y97.854 E9.2883
G1 X158.017 Y152.645 E11.8993
G1 X157.921 Y152.789 E11.9064
G1 X154.584 Y157.137 E12.1326
G1 X154.340 Y157.381 E12.1468
G1 X149.923 Y160.770 E12.3766
G1 X149.623 Y160.943 E12.3909
G1 X144.480 Y163.074 E12.6206
G1 X144.146 Y163.163 E12.6349
G1 X138.712 Y163.879 E12.8611
G1 X138.539 Y163.890 E12.8682
G1 X71.461 Y163.890 E15.6365
G1 X71.288 Y163.879 E15.6436
G1 X65.854 Y163.163 E15.8698
G1 X65.520 Y163.074 E15.8841
G1 X60.377 Y160.943 E16.1138
G1 X60.077 Y160.770 E16.1281
G1 X55.660 Y157.381 E16.3579
G1 X55.416 Y157.137 E16.3722
G1 X52.079 Y152.789 E16.5983
G1 X51.983 Y152.645 E16.6055
G1 X20.350 Y97.854 E19.2164
G1 X20.274 Y97.699 E19.2236
G1 X18.176 Y92.636 E19.4498
G1 X18.087 Y92.302 E19.4640
G1 X17.371 Y86.868 E19.6902
G1 X17.360 Y86.695 E19.6973
G1 X17.360 Y47.656 E21.3084
G1 X18.906 Y46.110 E21.3987
G1 X19.105 Y46.590 F4800
G92 E0
G1 X190.895 Y46.590 E7.0896 F1200
G1 X192.160 Y47.855 E7.1635
G1 X192.160 Y86.680 E8.7657
G1 X192.151 Y86.821 E8.7715
G1 X191.442 Y92.208 E8.9958
G1 X191.368 Y92.481 E9.0075
G1 X189.289 Y97.501 E9.2317
G1 X189.226 Y97.628 E9.2375
G1 X157.609 Y152.391 E11.8472
G1 X157.530 Y152.509 E11.8530
G1 X154.223 Y156.819 E12.0773
G1 X154.022 Y157.020 E12.0889
G1 X149.656 Y160.370 E12.3161
G1 X149.410 Y160.512 E12.3278
G1 X144.325 Y162.618 E12.5549
G1 X144.052 Y162.692 E12.5666
G1 X138.665 Y163.401 E12.7909
G1 X138.524 Y163.410 E12.7967
G1 X71.476 Y163.410 E15.5637
G1 X71.335 Y163.401 E15.5695
G1 X65.948 Y162.692 E15.7937
G1 X65.675 Y162.618 E15.8054
G1 X60.590 Y160.512 E16.0326
G1 X60.344 Y160.370 E16.0443
G1 X55.978 Y157.020 E16.2714
G1 X55.777 Y156.819 E16.2831
G1 X52.470 Y152.509 E16.5073
G1 X52.391 Y152.391 E16.5132
G1 X20.774 Y97.628 E19.1228
G1 X20.711 Y97.501 E19.1287
G1 X18.632 Y92.481 E19.3529
G1 X18.558 Y92.208 E19.3646
G1 X17.849 Y86.821 E19.5888
G1 X17.840 Y86.680 E19.5947
G1 X17.840 Y47.855 E21.1969
G1 X19.105 Y46.590 E21.2708
G1 X19.304 Y47.070 F4800
G92 E0
G1 X190.696 Y47.070 E7.0732 F1200
G1 X191.680 Y48.054 E7.1306
G1 X191.680 Y86.664 E8.7240
G1 X191.673 Y86.774 E8.7286
G1 X190.970 Y92.114 E8.9509
G1 X190.913 Y92.327 E8.9599
G1 X188.852 Y97.303 E9.1822
G1 X188.803 Y97.401 E9.1868
G1 X157.201 Y152.138 E11.7951
G1 X157.140 Y152.229 E11.7997
G1 X153.861 Y156.502 E12.0220
G1 X153.705 Y156.658 E12.0310
G1 X149.388 Y159.970 E12.2556
G1 X149.198 Y160.080 E12.2647
G1 X144.171 Y162.163 E12.4893
G1 X143.958 Y162.220 E12.4983
G1 X138.618 Y162.923 E12.7206
G1 X138.508 Y162.930 E12.7252
G1 X71.492 Y162.930 E15.4909
G1 X71.382 Y162.923 E15.4954
G1 X66.042 Y162.220 E15.7177
G1 X65.829 Y162.163 E15.7268
G1 X60.802 Y160.080 E15.9513
G1 X60.612 Y159.970 E15.9604
G1 X56.295 Y156.658 E16.1850
G1 X56.139 Y156.502 E16.1941
G1 X52.860 Y152.229 E16.4163
G1 X52.799 Y152.138 E16.4209
G1 X21.197 Y97.401 E19.0293
G1 X21.148 Y97.303 E19.0338
G1 X19.087 Y92.327 E19.2561
G1 X19.030 Y92.114 E19.2652
G1 X18.327 Y86.774 E19.4874
G1 X18.320 Y86.664 E19.4920
G1 X18.320 Y48.054 E21.0854
G1 X19.304 Y47.070 E21.1428
G1 X19.503 Y47.550 F4800
G92 E0
G1 X190.497 Y47.550 E7.0568 F1200
G1 X191.200 Y48.253 E7.0978
G1 X191.200 Y86.648 E8.6824
G1 X191.195 Y86.727 E8.6856
G1 X190.498 Y92.020 E8.9059
G1 X190.457 Y92.172 E8.9124
G1 X188.414 Y97.104 E9.1328
G1 X188.379 Y97.175 E9.1360
G1 X156.793 Y151.884 E11.7431
G1 X156.749 Y151.949 E11.7463
G1 X153.499 Y156.185 E11.9667
G1 X153.388 Y156.296 E11.9732
G1 X149.121 Y159.570 E12.1951
G1 X148.985 Y159.649 E12.2016
G1 X144.016 Y161.707 E12.4236
G1 X143.864 Y161.748 E12.4301
G1 X138.571 Y162.445 E12.6504
G1 X138.492 Y162.450 E12.6536
G1 X71.508 Y162.450 E15.4180
G1 X71.429 Y162.445 E15.4213
G1 X66.136 Y161.748 E15.6416
G1 X65.984 Y161.707 E15.6481
G1 X61.015 Y159.649 E15.8701
G1 X60.879 Y159.570 E15.8766
G1 X56.612 Y156.296 E16.0985
G1 X56.501 Y156.185 E16.1050
G1 X53.251 Y151.949 E16.3253
G1 X53.207 Y151.884 E16.3286
G1 X21.621 Y97.175 E18.9357
G1 X21.586 Y97.104 E18.9389
G1 X19.543 Y92.172 E19.1592
G1 X19.502 Y92.020 E19.1657
G1 X18.805 Y86.727 E19.3861
G1 X18.800 Y86.648 E19.3893
G1 X18.800 Y48.253 E20.9739
G1 X19.503 Y47.550 E21.0149
G1 X19.702 Y48.030 F4800
G92 E0
G1 X190.298 Y48.030 E7.0404 F1200
G1 X190.720 Y48.452 E7.0650
G1 X190.720 Y86.633 E8.6407
G1 X190.717 Y86.680 E8.6426
G1 X190.026 Y91.926 E8.8610
G1 X190.002 Y92.017 E8.8649
G1 X187.977 Y96.906 E9.0833
G1 X187.956 Y96.949 E9.0852
G1 X156.385 Y151.630 E11.6910
G1 X156.359 Y151.670 E11.6930
G1 X153.138 Y155.868 E11.9114
G1 X153.071 Y155.935 E11.9153
G1 X148.854 Y159.170 E12.1346
G1 X148.772 Y159.218 E12.1385
G1 X143.861 Y161.252 E12.3579
G1 X143.770 Y161.276 E12.3618
G1 X138.524 Y161.967 E12.5802
G1 X138.477 Y161.970 E12.5821
G1 X71.523 Y161.970 E15.3452
G1 X71.476 Y161.967 E15.3472
G1 X66.230 Y161.276 E15.5655
G1 X66.139 Y161.252 E15.5694
G1 X61.228 Y159.218 E15.7888
G1 X61.146 Y159.170 E15.7927
G1 X56.929 Y155.935 E16.0121
G1 X56.862 Y155.868 E16.0160
G1 X53.641 Y151.670 E16.2343
G1 X53.615 Y151.630 E16.2363
